X: 4
T: Coppers And Brass
R: jig
M: 6/8
L: 1/8
K: Gmaj
A| ~B3 GBd | cBc ABc | B/c/dB GBd | cAG FGA |~B3 GBd | cBc ABc | ded cAF | AGF G2 :|d | ~f3 fed | cAG FGA | dgg gfg | afd d2 e |f/g/ag fed | cAG FGA | ~B3 cAF | AGF GB :|d | gdB gdB | ecA ecA | ~B3 GBd | cAG FED |gdB gdB | ecA ecA | B/c/dB GBd | cAF G2 :|


Tune 228	Setting 228

